src/icons/icons_set_04/034-fleche-suivant.svg

<svg height="50" viewBox="0 0 50 50" width="50" xmlns="http://www.w3.org/2000/svg"><g transform="matrix(0 -1 1 0 6 39)"><path d="m9.5 0c0-2.209139 1.790861-4 4-4s4 1.790861 4 4v38.5c0 2.209139-1.790861 4-4 4s-4-1.790861-4-4z"/><path d="m13.6273289 33.0205034 10.3833676-11.6783342c1.4678795-1.6509468 3.9961876-1.7993521 5.6471343-.3314727 1.6509468 1.4678795 1.7993521 3.9961876.3314727 5.6471343l-13.3367064 15c-1.578333 1.7751756-4.3468475 1.7918273-5.9464198.0357658l-13.66329367-15c-1.48763234-1.6331703-1.36965053-4.1630806.26351975-5.650713 1.63317027-1.4876323 4.16308066-1.3696505 5.65071299.2635198z"/></g></svg>

<?xml version="1.0" encoding="UTF-8"?>
<svg width="50px" height="50px" viewBox="0 0 50 50" version="1.1" xmlns="http://www.w3.org/2000/svg" xmlns:xlink="http://www.w3.org/1999/xlink">
    <!-- Generator: Sketch 52.4 (67378) - http://www.bohemiancoding.com/sketch -->
    <title>034-fleche-suivant</title>
    <desc>Created with Sketch.</desc>
    <g id="034-fleche-suivant" stroke="none" stroke-width="1" fill="none" fill-rule="evenodd">
        <g id="Group-2" transform="translate(25.500000, 25.500000) rotate(-90.000000) translate(-25.500000, -25.500000) translate(12.000000, 6.000000)" fill="#000000" fill-rule="nonzero">
            <path d="M9.5,0 C9.5,-2.209139 11.290861,-4 13.5,-4 C15.709139,-4 17.5,-2.209139 17.5,0 L17.5,38.5 C17.5,40.709139 15.709139,42.5 13.5,42.5 C11.290861,42.5 9.5,40.709139 9.5,38.5 L9.5,0 Z" id="Path-3"></path>
            <path d="M13.6273289,33.0205034 L24.0106965,21.3421692 C25.478576,19.6912224 28.0068841,19.5428171 29.6578308,21.0106965 C31.3087776,22.478576 31.4571829,25.0068841 29.9893035,26.6578308 L16.6525971,41.6578308 C15.0742641,43.4330064 12.3057496,43.4496581 10.7061773,41.6935966 L-2.95711637,26.6935966 C-4.44474871,25.0604263 -4.3267669,22.530516 -2.69359662,21.0428836 C-1.06042635,19.5552513 1.46948404,19.6732331 2.95711637,21.3064034 L13.6273289,33.0205034 Z" id="Path-4"></path>
        </g>
    </g>
</svg>
